src/imagens/sectionProjetos/iconeJs.svg

<svg width="15" height="17" viewBox="0 0 15 17" fill="none" xmlns="http://www.w3.org/2000/svg">
<path d="M14.8615 0.263073C14.7954 0.188193 14.7026 0.145508 14.6048 0.145508H1.01457C0.916834 0.145508 0.823965 0.188193 0.757878 0.263073C0.691791 0.337953 0.659443 0.438516 0.668139 0.539442L1.89249 14.8017C1.90536 14.9508 2.00518 15.0763 2.14362 15.1175L7.71231 16.7718C7.74327 16.7808 7.77562 16.7855 7.80762 16.7855C7.83962 16.7855 7.87196 16.7808 7.90292 16.7718L13.4765 15.1175C13.6149 15.0763 13.7147 14.9508 13.7276 14.8017L14.9513 0.539442C14.96 0.438516 14.9273 0.337953 14.8615 0.263073ZM3.28796 9.91391L5.72275 10.6164V3.40116H7.11405V12.8064L3.28796 11.7027V9.91391ZM12.3502 7.38029L11.9836 11.8116L8.50536 12.8064V11.142L10.8532 10.471L10.9401 9.11447L8.50536 9.55073V3.40116H12.6793L12.5593 4.84812H9.89666V7.74203L12.3502 7.38029Z" fill="#00FFC2"/>
</svg>

<svg xmlns="http://www.w3.org/2000/svg" width="15" height="17" fill="none"><path fill="#00FFC2" d="M14.861.263a.342.342 0 0 0-.256-.117H1.015a.342.342 0 0 0-.257.117.37.37 0 0 0-.09.276l1.224 14.263c.013.149.113.274.252.316l5.568 1.654a.343.343 0 0 0 .19 0l5.574-1.654a.36.36 0 0 0 .252-.316L14.95.539a.372.372 0 0 0-.09-.276ZM3.288 9.913l2.435.703V3.401h1.391v9.405l-3.826-1.103v-1.79ZM12.35 7.38l-.366 4.432-3.479.994v-1.664l2.348-.671.087-1.357-2.435.437V3.4h4.174l-.12 1.447H9.897v2.894l2.453-.362Z"/></svg>
